X: 10672
T: IN MY COTTAGE NEAR A WOOD
%R: air, march
B: "Edinburgh Repository of Music" v.1 p.67 #2
F: http://digital.nls.uk/special-collections-of-printed-music/pageturner.cfm?id=87776133
Z: 2015 John Chambers <jc:trillian.mit.edu>
M: C
L: 1/4
K: G
(B>c) |\
.d.d .e.e | dz (ga) |\
bc'/a/ (gf) | fz :|\
|: (c'b) |\
(ab c'b) | (a2 c'b) |
a(b/g/) .f.e | d2(B>c) |\
.d.d .e.e | dz (ga) |\
bc'/a/ (gf) | gz :|

%%sep 2 1 500
%%sep 1 1 500

